live_loop :jj do
  sample :loop_breakbeat, rate: 1.25, amp: 4
  sleep 1.5
  use_synth :dsaw
  play 20, amp: 1
end

#comment
live_loop :ll do
  sync :jj
  sample :elec_bell, amp: 2.5
  sleep 3.0
end

comment
live_loop :kk do
  synth :jj
  use_synth :tb303
  play 65
  sleep 0.4375
  play 66
  sleep 0.4375
  play 57
  sleep 0.4375
  play 62
  sleep 0.4375
end