# Sonic Pi Tutorial
# 07.2 - Controlling FX

use_synth_defaults amp: 2
with_fx :reverb do |r|
  play 50
  sleep 0.5
  control r, mix: 0.7
  play 55
  sleep 1
  control r, mix: 0.9
  sleep 1
  play 62
end