live_loop :techno do
  sample :bd_tek, amp: 2
  sleep 0.5
  sample :sn_zome, amp: 0.5
  sleep 0.25
  #sample :bd_te, amp: 2
  sleep 0.25
  sample :bd_tek, amp: 2
  sleep 0.25
  sample :bd_tek, amp: 2
  sleep 0.25
  sample :sn_zome, amp: 0.5
  sleep 0.5
end