# Sonic Pi Tutorial
# 07.2 - Controlling FX
live_loop :foo do
  use_synth_defaults amp: 4
  with_fx :reverb do |r|
    play 50 + 16
    sleep 1
    control r, mix: 0.7
    play 55 + 16
    sleep 1
    control r, mix: 0.9
    sleep 1
    play 62 + 16
    sleep 1
  end
end