use_synth :prophet
live_loop :costam do
  sync :techno
  play :C5, amp: 0.5, pan: -1
  sleep 0.25
  play :A, amp: 0.5, pan: -0.75
  sleep 0.25
  play :G, amp: 0.5, pan: -0.5
  sleep 0.25
  play :F, amp: 0.5, pan: -0.25
  sleep 0.25
  #play :G, amp: 0.5, pan: 0
  #sleep 0.25
  #play :A, amp: 0.5, pan: 0.25
  #sleep 0.25
  #play :B, amp: 0.5, pan: 0.5
  #sleep 0.25
  #play :C5, amp: 0.5, pan: 0.75

end