live_loop :costam do
play :C, amp: 1, pan: -1
sleep 0.25
play :D, amp: 1, pan: -0.75
sleep 0.25
play :E, amp: 1, pan: -0.5
sleep 0.25
play :F, amp: 1, pan: -0.25
sleep 0.25
play :G, amp: 1, pan: 0
sleep 0.25
play :A, amp: 1, pan: 0.25
sleep 0.25
play :B, amp: 1, pan: 0.5
sleep 0.25
play :C5, amp: 1, pan: 0.75
end