# Live Coding Buffer
#use_sample_pack "D:/hopbit/dev/workspace/workshops/overtone-workshop/resources"
#use_sample_pack "D:/hopbit/dev/workspace/workshops/overtone-workshop/resources/dubstep"
#use_sample_pack "D:/hopbit/dev/workspace/workshops/overtone-workshop/resources/daft"
#use_sample_pack "D:/hopbit/dev/workspace/workshops/overtone-workshop/resources/house"
#use_sample_pack "D:/hopbit/dev/workspace/workshops/overtone-workshop/resources/lights"

#sample "D:/hopbit/dev/workspace/workshops/overtone-workshop/resources/dubstep/db.wav"
#sample :ptoyl

use_bpm 128
live_loop :foo do
  use_synth :growl
  play chord(:Gs4, :major), amp: 2
  sleep 2
end