#/* live_loop :bass_drumz do
#  sample :bd_klub
#  sample :sn_zome
#  sleep 0.25
#  sample :bd_klub
#  sleep 0.25
#  sample :bd_klub
#  sleep 0.25
#  sample :bd_klub
#  sleep 0.25
#  sample :perc_snap
#end 

live_loop :melody do
  sample :loop_amen
  sleep 2
end

##sleep 1
#sample :perc_bell
#sleep 1
#sample :perc_snap
#sleep 1
#sample :perc_snap2
#sleep 1