# Sonic Pi Tutorial
# 05.5 - Functions

define :chord_player do |root, repeats|
  repeats.times do
    play chord(root, :minor), release: 0.3
    sleep 0.5
  end
end

chord_player :e4, 2
sleep 0.5
chord_player :a4, 3
chord_player :g4, 4
sleep 0.5
chord_player :e4, 3