# Sonic Pi Tutorial
# 05.6 - Zmienne

sample_name = :loop_garzul
# sd = sample_duration(:loop_amen)
sample sample_name
sleep sample_duration(sample_name)
sample sample_name, rate: 0.5
sleep sample_duration(sample_name, rate: 0.5)
sample sample_name
sleep sample_duration(sample_name)