live_loop :foo do
  sample :elec_triangle, amp: 0
  sleep 0.40625
  sample :elec_snare, amp: 0
  sleep 0.40626
  sample :elec_triangle, amp: 0
  sleep 0.203125
  sample :elec_snare, amp: 0
  sleep 0.203125
end
live_loop :bar do
  sample :loop_compus, amp: 0.1
  sleep 6.5
end