# Sonic Pi Tutorial
# 06.1 - Adding FX

live_loop :foo do
  with_fx :echo, phase: 0.02 do
    play 50
    sleep 1
    sample :elec_plip
    sleep 1
    play 62
    sleep 1
    sample :elec_plip
    sleep 1
  end
end