# Sonic Pi Tutorial
# 06.1 - Adding FX


live_loop :foo do
  with_fx :reverb do
    play 50 + 18
    sleep 0.5
    sample :elec_plip, amp: 4
    sleep 0.5
    play 62 + 18
    sleep 1
    play 55 + 18
  end
end