# Sonic Pi Tutorial
# 05.7 - Threads Synchronisation

in_thread do
  loop do
    cue :tick
    sleep 2
  end
end

sleep 2.5

in_thread do
  loop do
    #sync :tick
    sample :drum_heavy_kick, amp: 2
  end
end