# Sonic Pi Tutorial
# 05.6 - Zmienne

sample :loop_amen
sleep sample_duration(:loop_amen)
sample :loop_amen, rate: 0.5
sleep sample_duration(:loop_amen, rate: 0.5)
sample :loop_amen
sleep sample_duration(:loop_amen)