live_loop :kick do
  sample :bd_haus, rate: 0.5
  sleep 0.5
end
live_loop :syntsh do
#  sample :ambi_choir, rate: 0.4
 sample :bd_haus, rate: 7
  sleep 0.25
 # sample :ambi_choir, rate: 0.7
  #sample :bd_haus, rate: 5
  sleep 0.25
end