live_loop :bass_drumz do
  sample :bd_klub
  sample :sn_zome
  sleep 0.25
  sample :perc_snap
  sample :bd_klub
  sleep 0.25
  sample :guit_em9
  sleep 0.5
end

##sleep 1
#sample :perc_bell
#sleep 1
#sample :perc_snap
#sleep 1
#sample :perc_snap2
#sleep 1