play :C, amp: 0.5
sleep 0.25
play :D, amp: 0.5
sleep 0.25
play :E, amp: 0.5
sleep 0.25
play :F, amp: 0.5
sleep 0.25
play :G, amp: 0.5
sleep 0.25
play :A, amp: 0.5
sleep 0.25
play :B, amp: 0.5
sleep 0.25
play :C5, amp: 0.5