live_loop :one do
 sample :loop_amen
  sleep 1.75
end

live_loop :foo do
  sample :elec_triangle, amp: 0.45
  sleep 0.40625
  sample :elec_snare, amp: 0.5
  sleep 0.40625
end

live_loop :bar do
  sample :loop_compus
  sleep 6.5
end

##sleep 1
#sample :perc_bell
#sleep 1
#sample :perc_snap
#sleep 1
#sample :perc_snap2
#sleep 1