live_loop :jj do
  sample :loop_breakbeat, rate: 1.25, amp: 4
  sleep 1.5
  use_synth :dsaw
  play 16, amp: 1
end

live_loop :ll do
  #stop
  sync :jj
  sample :elec_bell, amp: 1.0
  sleep 3.0
end


live_loop :kk do
  stop
  synth :jj
  sample :guit_e_fifths, rate: 2.7
  sleep 3
  sample :guit_e_fifths, rate: 2.5
  sleep 3
end