# Live Coding Buffer
#use_sample_pack "D:/hopbit/dev/workspace/workshops/overtone-workshop/resources"
#use_sample_pack "D:/hopbit/dev/workspace/workshops/overtone-workshop/resources/dubstep"
#use_sample_pack "D:/hopbit/dev/workspace/workshops/overtone-workshop/resources/daft"
#use_sample_pack "D:/hopbit/dev/workspace/workshops/overtone-workshop/resources/house"
#use_sample_pack "D:/hopbit/dev/workspace/workshops/overtone-workshop/resources/lights"

#sample "D:/hopbit/dev/workspace/workshops/overtone-workshop/resources/dubstep/db.wav"
#sample :ptoyl

# play :c4

# play chord(:Gadd5, :Dsus4)
#comment do
live_loop :hello do
  use_synth :supersaw
  use_synth_defaults release: 2
  use_bpm 86
  with_fx :echo do
    with_fx :flanger do
      play chord(:E, :minor)
      sleep 2
      play chord(:A, :major)
      sleep 2
      play chord(:D, :major)
      sleep 2
      play chord(:G, :major)
      sleep 2
      play chord(:C, :major)
      sleep 2
      play chord(:A, :minor7)
      sleep 2
      play chord(:B, :major7), release: 4
      sleep 4
    end
  end
end
#end