live_loop :melody do
  #stop
  use_synth :piano
  play :C4
  sleep 0.2
  play :D4
  sleep 0.2
  play :E4
  sleep 0.2
  play :F4
  sleep 0.2
  play :G4
  sleep 0.2
  play :A4
  sleep 0.2
  play :B4
  sleep 0.2
  play :C5
  sleep 0.2
end

live_loop :beat do
  sync :melody
  sample :drum_heavy_kick
  sleep 0.4
  sample :sn_zome
  sleep 0.4
  #sample :bd_haus
  sleep 0.2
  sample :bd_haus
  sleep 0.2
  sample :sn_zome
  sleep 0.4
end