live_loop :foo do
  sample :ambi_lunar_land, amp: 0.5
  sample :elec_triangle, amp: 0.4
  sleep 0.40625
  sample :elec_snare, amp: 0.2
  sleep 0.40626
  sample :elec_triangle, amp: 0.3
  sleep 0.203125
  sample :elec_snare, amp: 0.35
  sleep 0.203125
end
live_loop :bar do
  sample :loop_compus, amp: 1
  sleep 6.5
end