#/* live_loop :bass_drumz do
#  sample :bd_klub
#  sample :sn_zome
#  sleep 0.25
#  sample :bd_klub
#  sleep 0.25
#  sample :bd_klub
#  sleep 0.25
#  sample :bd_klub
#  sleep 0.25
#  sample :perc_snap
#end

#live_loop :one do
#  # sample :loop_amen
#  sleep 1.75
#end

live_loop :foo do
  sample :elec_triangle, amp: 0.25
  sleep 0.2
end

live_loop :bar do
  sample :loop_compus
  sleep 7
end

##sleep 1
#sample :perc_bell
#sleep 1
#sample :perc_snap
#sleep 1
#sample :perc_snap2
#sleep 1