live_loop :tecno do
  # 1
  sample :bd_haus
  sleep 0.27

  #i
  sleep 0.27 # i
  sample :bd_haus

  sleep 0.27 # 2

  sleep 0.27 # i
  sample :bd_haus
  sleep 0.27 # 3

  sleep 0.27 # i

  sample :bd_haus
sample :perc_snap2, amp: 0.5
  sleep 0.27 # 4

  sleep 0.27 # i

end