# Live Coding Buffer
#use_sample_pack "D:/hopbit/dev/workspace/workshops/overtone-workshop/resources"
#use_sample_pack "D:/hopbit/dev/workspace/workshops/overtone-workshop/resources/dubstep"
#use_sample_pack "D:/hopbit/dev/workspace/workshops/overtone-workshop/resources/daft"
#use_sample_pack "D:/hopbit/dev/workspace/workshops/overtone-workshop/resources/house"
#use_sample_pack "D:/hopbit/dev/workspace/workshops/overtone-workshop/resources/lights"

#sample "D:/hopbit/dev/workspace/workshops/overtone-workshop/resources/dubstep/db.wav"
#sample :ptoyl

# play :c4

# play chord(:Gadd5, :Dsus4)
#comment do

use_synth :supersaw
live_loop :hello do
  use_bpm 100
  with_fx :echo do
    with_fx :flanger do
      play chord(:A, :major), release: 1
      sleep 1
      play chord(:E, :major), release: 1
      sleep 1
      play chord(:Fs, :m), release: 1
      sleep 1
      play chord(:D, :major), release: 1
    end
  end
end
#end