live_loop :test do
  use_synth :pulse

  play 38
  sleep 0.25

  #use_synth :dsaw
  play 50
  sleep 0.25

  #use_synth :prophet
  play 62
  sleep 0.25

  #use_synth :prophet
  play 74
  sleep 0.25
end