# Live Coding Buffer
#use_sample_pack "D:/hopbit/dev/workspace/workshops/overtone-workshop/resources"
#use_sample_pack "D:/hopbit/dev/workspace/workshops/overtone-workshop/resources/dubstep"
#use_sample_pack "D:/hopbit/dev/workspace/workshops/overtone-workshop/resources/daft"
#use_sample_pack "D:/hopbit/dev/workspace/workshops/overtone-workshop/resources/house"
#use_sample_pack "D:/hopbit/dev/workspace/workshops/overtone-workshop/resources/lights"

#sample "D:/hopbit/dev/workspace/workshops/overtone-workshop/resources/dubstep/db.wav"
#sample :ptoyl

# play :c4

# play chord(:Gadd5, :Dsus4)
live_loop :hello do
  use_synth :supersaw
  use_synth_defaults release: 2
  use_bpm 98
  with_fx :lpf do
    with_fx :echo do
        play chord(:F, :major)
        sleep 2
        play chord(:G, :major)
        sleep 2
        play chord(:C, :major)
        sleep 2
        play chord(:a, :minor7)
        sleep 2
    end
  end
end