# Live Coding Buffer
#use_sample_pack "D:/hopbit/dev/workspace/workshops/overtone-workshop/resources"
#use_sample_pack "D:/hopbit/dev/workspace/workshops/overtone-workshop/resources/dubstep"
#use_sample_pack "D:/hopbit/dev/workspace/workshops/overtone-workshop/resources/daft"
#use_sample_pack "D:/hopbit/dev/workspace/workshops/overtone-workshop/resources/house"
#use_sample_pack "D:/hopbit/dev/workspace/workshops/overtone-workshop/resources/lights"

#sample "D:/hopbit/dev/workspace/workshops/overtone-workshop/resources/dubstep/db.wav"
#sample :ptoyl

# play :c4

# play chord(:Gadd5, :Dsus4)
#comment do
use_bpm 128
use_synth :supersaw
live_loop :hello do
  with_fx :echo do
    with_fx :flanger do
      play chord(:E, '7+5')
      sleep 1
play chord(:E, :)
    end
  end
end
#end