live_loop :melody do
  use_synth :piano
  play :C4
  sleep 0.25
  play :D4
  sleep 0.25
  play :E4
  sleep 0.25
  play :F4
  sleep 0.25
  play :G4
  sleep 0.25
  play :A4
  sleep 0.25
  play :B4
  sleep 0.25
  play :C5
  sleep 0.5
end

live_loop :beat do
  sync :melody
  sample :drum_heavy_kick
  sleep 0.5
  sample :sn_zome
  sleep 0.5
  sample :bd_haus
  sleep 0.25
  sample :bd_haus
  sleep 0.25
  sample :sn_zome
  sleep 0.5
end