# Live Coding Buffer
#use_sample_pack "D:/hopbit/dev/workspace/workshops/overtone-workshop/resources"
#use_sample_pack "D:/hopbit/dev/workspace/workshops/overtone-workshop/resources/dubstep"
use_sample_pack "D:/hopbit/dev/workspace/workshops/overtone-workshop/resources/daft"
#use_sample_pack "D:/hopbit/dev/workspace/workshops/overtone-workshop/resources/house"
#use_sample_pack "D:/hopbit/dev/workspace/workshops/overtone-workshop/resources/lights"

#sample "D:/hopbit/dev/workspace/workshops/overtone-workshop/resources/dubstep/db.wav"
#sample :ptoyl

# play :c4

play scale (:Gadd5, :major_pentatonic, num_octaves: 3)
sleep 1
play :Dsus4 
sleep 1
play :Am 
sleep 1
play :Am
sleep 1
play :Gadd5 
sleep 1
play :Dsus4 
play :Am 
play :Am
play :Gadd5 
play :Dsus4 
play :Cadd9 
play :Cadd9