live_loop :flibble do
  sample :drum_snare_hard, rate: 2
  sleep 0.25
  sample :ambi_choir, rate: 0.3
  sample :bd_haus, rate: 1
  sleep 0.25
end

live_loop :flibble do
  sleep 0.25
  sample :drum_snare_hard, rate: 1
  sleep 0.125
  sample :drum_snare_hard, rate: 0.9
  sleep 0.125
  sample :drum_snare_hard, rate: 0.8
  
end