live_loop :melody do
  use_synth :piano
  play :C4
  sleep 0.5
  play :D4
  sleep 0.5
  play :E4
  sleep 0.5
  play :F4
  sleep 0.5
  play :G4
  sleep 0.5
  play :A4
  sleep 0.5
  play :B4
  sleep 0.5
  play :C5
  sleep 0.5
end

live_loop :beat do 
  sync :melody
  sample :drum_heavy_kick
  sleep 4
end