# Live Coding Buffer
#use_sample_pack "D:/hopbit/dev/workspace/workshops/overtone-workshop/resources"
#use_sample_pack "D:/hopbit/dev/workspace/workshops/overtone-workshop/resources/dubstep"
#use_sample_pack "D:/hopbit/dev/workspace/workshops/overtone-workshop/resources/daft"
#use_sample_pack "D:/hopbit/dev/workspace/workshops/overtone-workshop/resources/house"
#use_sample_pack "D:/hopbit/dev/workspace/workshops/overtone-workshop/resources/lights"

#sample "D:/hopbit/dev/workspace/workshops/overtone-workshop/resources/dubstep/db.wav"
#sample :ptoyl

# play :c4

# play chord(:Gadd5, :Dsus4)
#comment do

use_synth :supersaw
use_synth_defaults release: 2
live_loop :hello do
  use_bpm 84
  with_fx :echo do
    with_fx :flanger do
      play chord(:E, :minor)#, release: 2
      sleep 2
      play chord(:A, :major)#, release: 2
      sleep 2
      play chord(:D, :major)#, release: 2
      sleep 2
      play chord(:G, :major)#, release: 2
      sleep 2
      play chord(:C, :major)#, release: 2
    end
  end
end
#end